X:171
T: "Die Schlaue"
N: Z0170
O: Europa, Mitteleuropa, Deutschland, Pfalz
R: Erzaehlung, lustige Romanze
M: 6/8
L: 1/8
K: F
 | F2FF2A | A2ccBA |
G2GG2G | A2GF2F |
d2ddef | c2cc2z |
B2BdcB | BAAA2z |
GGGBAG | FAccBA |
GGGBAG | FAGF2z

@@@ Tune index: 9929
